X:165
T: Tailor's Thimble
M: 4/4
L: 1/8
S: Luke O'Malley vol 1
Z: B.Black
R: reel
K: Ador
cAA^G A2 ed |cAA2 dBGB |cAA^G A2 (3Bcd |efge dBGB |
cAA2 EAA2 |cAA2 dBGB |cAA^G A2 (3Bcd |efge dega ||
b2 gb abga |bgge dega |bgg2 agg2 |efge dega |
b2 gb abga |bgge dega |bgg2 agg2 |efge dBGB ||
